src/assets/icons/biz-money,simple,job.svg

<svg width="48" height="48" viewBox="0 0 48 48" fill="none" xmlns="http://www.w3.org/2000/svg">
<rect opacity="0.2" x="5" y="5" width="38" height="38" rx="4" fill="black"/>
<mask id="mask0_37:1317" style="mask-type:alpha" maskUnits="userSpaceOnUse" x="5" y="5" width="38" height="38">
<rect x="5" y="5" width="38" height="38" rx="4" fill="#9FA4A9"/>
</mask>
<g mask="url(#mask0_37:1317)">
<path opacity="0.6" d="M19.0217 20.8647L27.1965 29.0395L18.9009 37.3352C16.6435 39.5926 12.9835 39.5926 10.7261 37.3352C8.46866 35.0778 8.46866 31.4178 10.7261 29.1604L19.0217 20.8647Z" fill="black"/>
<path d="M27.5 8C28.0603 8 26.6595 8 26.665 8.00003C28.2183 8.00859 29.1743 10.2471 28.1063 11.3751C28.1025 11.3791 28.6407 10.8169 28.4254 11.0418C26.9132 12.6213 25.4769 14.3169 23.9957 15.8625C22.0226 17.9214 22.0226 21.2595 23.9957 23.3185C25.9688 25.3774 29.1679 25.3774 31.141 23.3185C32.5025 21.8978 34.0477 20.5123 35.4844 19.0505C35.6054 18.9275 35.6659 18.8659 35.7696 18.785C36.8801 17.9185 38.7981 18.7033 38.9827 20.0996C39 20.2301 39 19.8466 39 20C39 26.6274 33.8513 32 27.5 32C21.1487 32 16 26.6274 16 20C16 13.3726 21.1487 8 27.5 8Z" fill="black"/>
</g>
</svg>

<svg xmlns="http://www.w3.org/2000/svg" width="48" height="48" fill="none" viewBox="0 0 48 48">
  <rect width="38" height="38" x="5" y="5" fill="#000" opacity=".2" rx="4"/>
  <mask id="a" width="38" height="38" x="5" y="5" maskUnits="userSpaceOnUse" style="mask-type:alpha">
    <rect width="38" height="38" x="5" y="5" fill="#9FA4A9" rx="4"/>
  </mask>
  <g mask="url(#a)">
    <path fill="#000" d="M19.022 20.865l8.175 8.175-8.296 8.295a5.78 5.78 0 01-8.175-8.175l8.296-8.295z" opacity=".6"/>
    <path fill="#000" d="M27.5 8h-.835c1.553.009 2.51 2.247 1.441 3.375l.32-.333c-1.513 1.58-2.95 3.275-4.43 4.82-1.973 2.06-1.973 5.397 0 7.457a4.905 4.905 0 007.145 0c1.361-1.421 2.907-2.807 4.343-4.268.121-.123.182-.185.286-.266 1.11-.866 3.028-.082 3.213 1.315.017.13.017-.253.017-.1 0 6.627-5.149 12-11.5 12S16 26.627 16 20 21.149 8 27.5 8z"/>
  </g>
</svg>
